X:1
T:God, Be Merciful to Me
T:Text: from Psalm 51; vers. Psalter, 1912, alt. Tune: Richard Redhead, 1853
T:77 77 77 REDHEAD 76 www.hymnary.org//text/god_be_merciful_to_me_on_thy_grace
T:God, Be Merciful to Me
T:This hymn is in the public domain. You may freely use this score for personal and congregational worship. If you reproduce the score, please credit Hymnary.org as the source. 
T:This hymn is in the public domain. You may freely use this score for personal and congregational worship. If you reproduce the score, please credit Hymnary.org as the source. 
Z:This hymn is in the public domain. You may freely use this score for personal and congregational worship. If you reproduce the score, please credit Hymnary.org as the source.
%%score ( 1 2 ) ( 3 4 )
L:1/8
M:4/4
K:Eb
V:1 treble nm="SOPRANO ALTO" snm="S. A."
V:2 treble 
V:3 bass nm="TENOR BASS" snm="T. B."
V:4 bass 
V:1
"^1""^2""^3""^4" E2 E2 F2 G2 | A3 A G4 | E2 E2 F2 G2 | F2 F2 E4 | E2 G2 B2 B2 | c2 c2 B4 | %6
w: God, be mer- ci-|ful to me;|on your grace I|rest my plea.|My trans- gres- sions|I con- fess;|
w: I have sinned a-|gainst your grace|and pro- voked you|to your face.|I con- fess your|judg- ment just;|
w: Gra- cious God my|heart re- new,|make my spi- rit|right and true.|Do not cast me|from your sight|
w: Con- trite spi- rit,|plead- ing cries,|you, O God, will|not des- pise.|Sin- ful ways I|will re- prove,|
 E2 G2 B2 B2 | c2 c2 B4 |1 E2 E2 F2 G2 | A3 A G4 | E2 F2 G2 F2 | E2 D2 E4 |] %12
w: grief and guilt my|soul op- press.|Wash me, make me|pure with- in;|cleanse, O cleanse me|from my sin.|
w: speech- less, I your|mer- cy trust.|Let my con- trite|heart re- joice|and in glad- ness|hear your voice.|
w: nor re- move your|Spi- rit's light.|Your sal- va- tion's|joy re- store,|make me stead- fast|ev- er- more.|
w: and my tongue shall|sing your love.|Let my right- eous|sac- ri- fice|then de- light your|ho- ly eyes.|
V:2
 B,2 B,2 D2 E2 | E3 E E4 | B,2 C2 D2 E2 | E2 D2 E4 | E2 E2 F2 G2 | E2 F2 G4 | E2 E2 F2 D2 | %7
 G2 FE D4 |1 E2 E2 D2 E2 | E3 E E4 | E2 D2 E2 C2 | B,2 B,2 B,4 |] %12
V:3
 G,2 G,2 B,2 B,2 | C3 C B,4 | G,2 G,2 B,2 B,2 | C2 B,2 G,4 | G,2 C2 D2 E2 | C2 D2 E4 | %6
 B,2 B,2 B,2 B,2 | B,2 =A,2 B,4 |1 B,2 B,2 A,2 B,2 | C3 C B,4 | B,2 A,2 B,2 A,2 | G,2 F,2 G,4 |] %12
V:4
 E,2 E,2 B,,2 E,2 | A,,3 A,, E,4 | E,2 C,2 B,,2 E,2 | A,,2 B,,2 E,4 | E,2 C,2 B,,2 E,2 | %5
 A,2 A,2 E,4 | G,2 E,2 D,2 G,2 | E,2 F,2 B,,4 |1 G,2 G,2 F,2 E,2 | A,,3 A,, E,4 | %10
 G,2 F,2 E,2 A,,2 | B,,2 B,,2 E,4 |] %12

